!!!!SEGMENT: Gom2015-Dulcis_amica
!!!id: Gom2015
!!!AGN: Motet
!!!voices: 4
!!!COM: Nicolas Gombert
!!!OTL: Dulcis amica
**kern	**kern	**kern	**kern
*part4	*part3	*part2	*part1
*staff4	*staff3	*staff2	*staff1
*I"Bassus	*I"Tenor	*I"Altus	*I"Superius
*I'B.	*I'T.	*I'A.	*I'S.
*clefGv2	*clefG2	*clefG2	*clefG2
*k[b-]	*k[b-]	*k[b-]	*k[b-]
*M2/1	*M2/1	*M2/1	*M2/1
*met(C|)	*met(C|)	*met(C|)	*met(C|)
=1	=1	=1	=1
!!section: Prima pars: Dulcis amica
!!!OMD: Prima pars: Dulcis amica
0r	0r	0r	0dd
=2	=2	=2	=2
0r	0r	0r	1g
.	.	.	[1ee-X
=3	=3	=3	=3
0r	0g	0r	2ee-]
.	.	.	2dd
.	.	.	2dd
.	.	.	[2ee-i
=4	=4	=4	=4
0r	1c	0r	4ee-]
.	.	.	4dd
.	.	.	4cc
.	.	.	4b-y
.	[1a	.	1cc
=5	=5	=5	=5
0r	2a]	0r	1.b-y
.	2g	.	.
.	[1g	.	.
.	.	.	4a
.	.	.	4g
=6	=6	=6	=6
0d	2g]	0r	0a
.	4f#i	.	.
.	4e	.	.
.	1f#i	.	.
=7	=7	=7	=7
1G	1g	0r	1.b-y
[1e-X	2r	.	.
.	[2g	.	4a
.	.	.	4g
=8	=8	=8	=8
2e-]	2g]	0r	0a
2d	4f	.	.
.	4e	.	.
[1d	[1f	.	.
=9	=9	=9	=9
2d]	2f]	0a	0r
4c	4e	.	.
4B-y	4d	.	.
2c	2e	.	.
[2d	[2f	.	.
=10	=10	=10	=10
4d]	4f]	1d	0r
4c	4d	.	.
4B-y	1f	.	.
4A	.	.	.
1G	.	[1b-y	.
.	2e	.	.
=11	=11	=11	=11
1.d	0f	2b-]	0dd
.	.	2a	.
.	.	2a	.
2B-y	.	[2b-y	.
=12	=12	=12	=12
2.e-i	2r	4b-]	1g
.	.	4a	.
.	1b-y	4g	.
4d	.	4f	.
1c	.	2g	[1ee-i
.	2a	4f	.
.	.	4e	.
=13	=13	=13	=13
1.B-y	2.b-y	2g	2ee-]
.	.	2f	2dd
.	8aL	.	.
.	8gJ	.	.
.	2f	[1b-y	[1dd
2G	[2g	.	.
=14	=14	=14	=14
1B-y	4g]	2b-]	2dd]
.	4f	.	.
.	2d	2g	4cc
.	.	.	4b-y
1A	1e	[1a	1cc
=15	=15	=15	=15
1d	0f	1a]	0dd
1r	.	2r	.
.	.	[2a	.
=16	=16	=16	=16
1.d	0r	2a]	0r
.	.	2b-y	.
.	.	2a	.
2e	.	2g	.
=17	=17	=17	=17
2d	1r	2.a	0r
2c	.	.	.
.	.	4g	.
1d	[1a	2f	.
.	.	4e	.
.	.	4d	.
=18	=18	=18	=18
2c	2a]	2e	0r
2.d	2b-y	1f	.
.	2a	.	.
4c	.	.	.
2B-y	2g	4e	.
.	.	4d	.
=19	=19	=19	=19
1A	1a	2e	1.cc
.	.	2f	.
1r	2g	2e	.
.	[2a	[2f	2dd
=20	=20	=20	=20
0r	2a]	2f]	2cc
.	4g	2d	2b-y
.	4f	.	.
.	2g	2e	2.cc
.	[2a	2f	.
.	.	.	8b-yL
.	.	.	8ccJ
=21	=21	=21	=21
1.d	2a]	2f	1dd
.	2b-y	1f	.
.	2a	.	1r
2e	2g	2g	.
=22	=22	=22	=22
2d	0a	2f	1r
2c	.	2e	.
1d	.	4f	[1dd
.	.	4e	.
.	.	4d	.
.	.	4c	.
=23	=23	=23	=23
2.G	1g	2B-y	2dd]
.	.	1b-y	2ee
4A	.	.	.
2B-y	2f	.	2dd
2c	2e	[2a	2cc
=24	=24	=24	=24
2.B-y	2f	2a]	1dd
.	4e	2g	.
4A	4d	.	.
4F	2f	1a	1cc
4G	.	.	.
[2A	2e	.	.
=25	=25	=25	=25
2A]	2f	1d	2cc
2G	2g	.	2b-y
1A	2.e	2c	2a
.	.	2c	[2cc
.	4f	.	.
=26	=26	=26	=26
1G	1g	2d	2cc]
.	.	1g	2b-y
1r	1r	.	2g
.	.	2f	2a
=27	=27	=27	=27
0r	0r	2d	2b-y
.	.	2e	2cc
.	.	2f	2a
.	.	[2g	[2b-y
=28	=28	=28	=28
0r	1r	4g]	4b-]
.	.	4f	4cc
.	.	2d	1dd
.	[1g	1e	.
.	.	.	2cc
=29	=29	=29	=29
2r	2g]	1d	1a
1d	2f	.	.
.	2d	1r	2b-y
2c	2e	.	[2cc
=30	=30	=30	=30
2A	2f	2r	4cc]
.	.	.	4dd
2B-y	2g	1g	1b-y
2c	2e	.	.
2d	2d	2f	[2a
=31	=31	=31	=31
1B-y	2f	2d	2a]
.	4e	1dd	2g
.	4d	.	.
1A	2e	.	1a
.	[2a	2cc	.
=32	=32	=32	=32
0r	2a]	2a	0r
.	2g	2b-y	.
.	2e	2cc	.
.	2f	2dd	.
=33	=33	=33	=33
2r	2g	2b-y	2r
1d	2a	2.a	1ff
.	2f	.	.
.	.	4g	.
2c	[2a	[2cc	2ee
=34	=34	=34	=34
2A	2a]	2cc]	2cc
2B-y	1g	2b-y	2dd
2c	.	2.a	2ee
[2d	2f	.	[2ff
.	.	8gL	.
.	.	8aJ	.
=35	=35	=35	=35
4d]	2g	2b-y	4ff]
4c	.	.	4ee
2A	1f	1a	2cc
1B-y	.	.	1dd
.	4e	2g	.
.	4d	.	.
=36	=36	=36	=36
0A	0e	0a	1cc
.	.	.	2r
.	.	.	2a
=37	=37	=37	=37
0r	2r	0r	2cc
.	2e	.	2g
.	2g	.	2.b-y
.	2d	.	.
.	.	.	4cc
=38	=38	=38	=38
1r	2.f	0r	2dd
.	.	.	1cc
.	4g	.	.
1A	2a	.	.
.	4g	.	4b-y
.	4f	.	4a
=39	=39	=39	=39
2c	2e	0r	2g
2G	2d	.	2.b-y
2.B-y	1d	.	.
.	.	.	4a
.	.	.	[2g
4c	.	.	.
=40	=40	=40	=40
1d	1r	1a	2g]
.	.	.	2f#i
2.c	1e	2cc	1g
.	.	2g	.
4B-y	.	.	.
=41	=41	=41	=41
1G	2g	2.b-y	1r
.	2d	.	.
.	.	4cc	.
1r	2.f	2dd	1a
.	.	[2cc	.
.	4g	.	.
=42	=42	=42	=42
0r	2a	4cc]	2cc
.	.	4a	.
.	2e	2b-y	2g
.	2r	2g	2b-y
.	2e	2g	2cc
=43	=43	=43	=43
1r	2g	2b-y	1dd
.	2d	2f	.
2r	1f	1a	[1cc
2A	.	.	.
=44	=44	=44	=44
2c	2e	2g	2cc]
2G	2g	2.b-y	2.dd
2.B-y	1d	.	.
.	.	4a	4cc
.	.	[2g	2b-y
4c	.	.	.
=45	=45	=45	=45
1d	2r	2g]	2a
.	2d	2f	2a
1c	1e	2g	2cc
.	.	4f	2g
.	.	4e	.
=46	=46	=46	=46
2B-y	2d	2f	2b-y
2e-i	1g	2g	2cc
1d	.	1a	1dd
.	2f	.	.
=47	=47	=47	=47
1G	2e	[0gl	1b-y
.	2d	.	.
1c	2e	.	2cc
.	2c	.	[2ee-i
=48	=48	=48	=48
2c	0e	0g_	4ee-]
.	.	.	4dd
2c	.	.	4cc
.	.	.	4b-y
1c	.	.	1cc
=49	=49	=49	=49
0Gl	0dl	0g]	0b-yl
==	==	==	==
*-	*-	*-	*-
!!!system-decoration: s1,s2,s3,s4
!!!RDF**kern: i = editorial accidental
!!!RDF**kern: l = terminal long
!!!ENC: Janosch Umbreit
!!!END: 2025/12/19
!!!EED: Benjamin Ory
!!!EEV: 2026/02/19
!!!YEC: Copyright 2026 Benjamin Ory, All Rights Reserved
!!!ONB: Translated from MusicXML on 2026/02/19
